icon-themes/sifr_svg/cmd/sc_symbolshapes.heart.svg

<svg viewBox="0 0 16 16" xmlns="http://www.w3.org/2000/svg"><g fill="#555753"><path d="m4.9375 1c-2.1746206 0-3.9375 1.7628571-3.9375 3.9375 0 .4641011.0502856.9376491.2460938 1.3125 1.9962233 3.7259608 4.4083985 4.06579 6.7265624 8.695312v.027344c.0057753.011559.0215606.015701.0273438.027344.00957-.01925.0177808-.035587.0273438-.054688 2.3181652-4.629531 4.7303392-4.9693512 6.7265622-8.695312.195807-.374851.246094-.8483988.246094-1.3125 0-2.1746428-1.762879-3.9375-3.9375-3.9375-1.2477186.1872469-2.3787403.6712977-3.0625 1.4765625-.9543188-.8494779-2.0243498-1.4585634-3.0625-1.4765625zm0 2c.6193767 0 1.1202609.2642262 1.4863281.7128906.5314048.6500641 1.0518423 1.3090562 1.5761719 1.9648438.5033083-.6320343 1.110508-1.3879111 1.5761719-1.9648438.3660616-.4486613.8669461-.7128906 1.4863281-.7128906 1.093754 0 1.9375.8437268 1.9375 1.9375 0 .3147993-.073781.4837319-.019531.3808594-.848709 1.5782169-1.706165 2.3619935-2.875 3.5175781-.6491939.6418315-1.3719118 1.4498995-2.105469 2.4218745-.7335569-.971973-1.4562775-1.7800426-2.1054688-2.4218745-1.168835-1.1555853-2.0262907-1.9393607-2.875-3.5175781.0542497.1028774-.0195312-.0660569-.0195312-.3808594 0-1.0937731.8437466-1.9375 1.9375-1.9375z"/><path d="m4.9375 3c.6193767 0 1.1202609.2642262 1.4863281.7128906.5314048.6500641 1.0518423 1.3090562 1.5761719 1.9648438.5033083-.6320343 1.110508-1.3879111 1.5761719-1.9648438.3660616-.4486613.8669461-.7128906 1.4863281-.7128906 1.093754 0 1.9375.8437268 1.9375 1.9375 0 .3147993-.07378.4837319-.01953.3808594-.848709 1.5782169-1.706165 2.3619935-2.875 3.5175781-.6491949.6418315-1.3719128 1.4498995-2.10547 2.4218745-.7335569-.971973-1.4562775-1.7800426-2.1054688-2.4218745-1.168835-1.1555853-2.0262907-1.9393607-2.875-3.5175781.0542497.1028774-.0195312-.0660569-.0195312-.3808594 0-1.0937731.8437466-1.9375 1.9375-1.9375z" opacity=".35"/></g></svg>

<svg xmlns="http://www.w3.org/2000/svg" viewBox="0 0 16 16">
  <path
     style="fill:#555753"
     d="M 4.9375 1 C 2.7628794 1 1 2.7628571 1 4.9375 C 1 5.4016011 1.0502856 5.8751491 1.2460938 6.25 C 3.2423171 9.9759608 5.6544923 10.31579 7.9726562 14.945312 L 7.9726562 14.972656 C 7.9784315 14.984215 7.9942168 14.988357 8 15 C 8.00957 14.98075 8.0177808 14.964413 8.0273438 14.945312 C 10.345509 10.315781 12.757683 9.9759608 14.753906 6.25 C 14.949713 5.875149 15 5.4016012 15 4.9375 C 15 2.7628572 13.237121 1 11.0625 1 C 9.8147814 1.1872469 8.6837597 1.6712977 8 2.4765625 C 7.0456812 1.6270846 5.9756502 1.0179991 4.9375 1 z M 4.9375 3 C 5.5568767 3 6.0577609 3.2642262 6.4238281 3.7128906 C 6.9552329 4.3629547 7.4756704 5.0219468 8 5.6777344 C 8.5033083 5.0457001 9.110508 4.2898233 9.5761719 3.7128906 C 9.9422335 3.2642293 10.443118 3 11.0625 3 C 12.156254 3 13 3.8437268 13 4.9375 C 13 5.2522993 12.926219 5.4212319 12.980469 5.3183594 C 12.13176 6.8965763 11.274304 7.6803529 10.105469 8.8359375 C 9.4562751 9.477769 8.7335572 10.285837 8 11.257812 C 7.2664431 10.285839 6.5437225 9.4777694 5.8945312 8.8359375 C 4.7256962 7.6803522 3.8682405 6.8965768 3.0195312 5.3183594 C 3.0737809 5.4212368 3 5.2523025 3 4.9375 C 3 3.8437269 3.8437466 3 4.9375 3 z "
     />
  <path
     style="fill:#555753;opacity:0.35"
     d="M 4.9375,3 C 5.5568767,3 6.0577609,3.2642262 6.4238281,3.7128906 6.9552329,4.3629547 7.4756704,5.0219468 8,5.6777344 8.5033083,5.0457001 9.110508,4.2898233 9.5761719,3.7128906 9.9422335,3.2642293 10.443118,3 11.0625,3 12.156254,3 13,3.8437268 13,4.9375 13,5.2522993 12.92622,5.4212319 12.98047,5.3183594 12.131761,6.8965763 11.274305,7.6803529 10.10547,8.8359375 9.4562751,9.477769 8.7335572,10.285837 8,11.257812 7.2664431,10.285839 6.5437225,9.4777694 5.8945312,8.8359375 4.7256962,7.6803522 3.8682405,6.8965768 3.0195312,5.3183594 3.0737809,5.4212368 3,5.2523025 3,4.9375 3,3.8437269 3.8437466,3 4.9375,3 Z"
     />
</svg>
